X: 1
T: The Tinker's Daughter
R: reel
M: 4/4
L: 1/8
K: Dmaj
|:A2 FA DAFA|defd efdB|A2 FA DAFA|B2 dB BAFB|
A2 FA DAFA|defd efde|faaf bfaf|1 (3efe de fedB:|2 (3efe de fdde||
faaf bfaf|defd (3efe de|f2 df efdB|ABdf edBd|
faaf bfaf||defd (3efe de|f2 df efdB|AFEF D2 de|
faaf bfaf|defd (3efe de|f2 df efdB|ABdf edBd|
A2 FA DAFA|defd efde|faaf bfaf|(3efe de fedB|


Tune 353	Setting 13154

